X: 7910
T: Conal O Grada's
R: reel
M: 4/4
K: Gmajor
{B}G2 BG DGBG|{B}G2 BG FA{c}AB|{B}G2 BG DGBd|cA{c}BG EFGA|
{B}G2 BG d z BG|{B}G2 BG FA{c}AB|{B}G2 BG d z Bd|cA{c}BG EFga||
{b}gf{g}ed {c} B2 {c} B2|{b}gf{g}ed fa ~a2|{b}gf{g}ed Bc d z|cA{c}BG EFGA|
{b}gf{g}ed {c} B2 {c} B2|{b}gf{g}ed fa ~a2|{b}gf{g}ed BcdB|cA{c}BG EFGA||

